Origami/64x64/apps/tomahawk.svg

<svg width="64" height="64" version="1" xmlns="http://www.w3.org/2000/svg">
 <path d="M 4.043,31.828 A 28,28 0 0 0 4,33 28,28 0 0 0 32,61 28,28 0 0 0 60,33 28,28 0 0 0 59.958,32.172 28,28 0 0 1 32,59 28,28 0 0 1 4.044,31.828 Z" style="opacity:.2"/>
 <path d="M 32,4 A 28,28 0 0 0 4,32 28,28 0 0 0 32,60 28,28 0 0 0 60,32 28,28 0 0 0 32,4 Z" style="fill:#e74c3c"/>
 <path d="m32 13a20 20 0 0 1 20 20 20 20 0 0 1 -6 14.278v-23.446c0-1.57-1.426-2.832-3.2-2.832h-1.6c-1.774 0-3.2 1.262-3.2 2.832v6.25l-7.292-4.09-8.576-4.808a1.4225 1.3814 0 0 0 -0.678 -0.184 1.4225 1.3814 0 0 0 -1.454 1.378v19.24a1.4225 1.3814 0 0 0 2.132 1.198l8.576-4.812 7.292-4.086v18.136a20 20 0 0 1 -6 0.946 20 20 0 0 1 -20 -20 20 20 0 0 1 20 -20z" style="opacity:.2"/>
 <path d="m32 12a20 20 0 0 1 20 20 20 20 0 0 1 -6 14.278v-23.446c0-1.57-1.426-2.832-3.2-2.832h-1.6c-1.774 0-3.2 1.262-3.2 2.832v6.25l-7.292-4.09-8.576-4.808a1.4225 1.3814 0 0 0 -0.678 -0.184 1.4225 1.3814 0 0 0 -1.454 1.378v19.24a1.4225 1.3814 0 0 0 2.132 1.198l8.576-4.812 7.292-4.086v18.136a20 20 0 0 1 -6 0.946 20 20 0 0 1 -20 -20 20 20 0 0 1 20 -20z" style="fill:#ffffff"/>
 <path d="M 31.998047 4 A 28 28 0 0 0 4 32 A 28 28 0 0 0 4.0214844 32.40625 A 28 28 0 0 1 31.998047 5 L 32 5 A 28 28 0 0 1 59.976562 32.585938 A 28 28 0 0 0 59.998047 32 A 28 28 0 0 0 32 4 L 31.998047 4 z" style="fill:#ffffff;opacity:.2"/>
</svg>

<svg xmlns="http://www.w3.org/2000/svg" width="64" height="64" version="1">
 <path style="opacity:0.2" d="M 4.043,31.828 A 28,28 0 0 0 4,33 28,28 0 0 0 32,61 28,28 0 0 0 60,33 28,28 0 0 0 59.958,32.172 28,28 0 0 1 32,59 28,28 0 0 1 4.044,31.828 Z"/>
 <path style="fill:#e74c3c" d="M 32,4 A 28,28 0 0 0 4,32 28,28 0 0 0 32,60 28,28 0 0 0 60,32 28,28 0 0 0 32,4 Z"/>
 <path style="opacity:0.2" d="M 32,13 A 20,20 0 0 1 52,33 20,20 0 0 1 46,47.278 L 46,23.832 C 46,22.262 44.574,21 42.8,21 l -1.6,0 C 39.426,21 38,22.262 38,23.832 l 0,6.25 -7.292,-4.09 -8.576,-4.808 A 1.4225,1.3814 0 0 0 21.454,21 1.4225,1.3814 0 0 0 20,22.378 l 0,19.24 a 1.4225,1.3814 0 0 0 2.132,1.198 L 30.708,38.004 38,33.918 38,52.054 A 20,20 0 0 1 32,53 20,20 0 0 1 12,33 20,20 0 0 1 32,13 Z"/>
 <path style="fill:#ffffff" d="M 32,12 A 20,20 0 0 1 52,32 20,20 0 0 1 46,46.278 L 46,22.832 C 46,21.262 44.574,20 42.8,20 l -1.6,0 C 39.426,20 38,21.262 38,22.832 l 0,6.25 -7.292,-4.09 -8.576,-4.808 A 1.4225,1.3814 0 0 0 21.454,20 1.4225,1.3814 0 0 0 20,21.378 l 0,19.24 a 1.4225,1.3814 0 0 0 2.132,1.198 L 30.708,37.004 38,32.918 38,51.054 A 20,20 0 0 1 32,52 20,20 0 0 1 12,32 20,20 0 0 1 32,12 Z"/>
 <path style="opacity:0.2;fill:#ffffff" d="M 31.998047 4 A 28 28 0 0 0 4 32 A 28 28 0 0 0 4.0214844 32.40625 A 28 28 0 0 1 31.998047 5 L 32 5 A 28 28 0 0 1 59.976562 32.585938 A 28 28 0 0 0 59.998047 32 A 28 28 0 0 0 32 4 L 31.998047 4 z"/>
</svg>
